X:1
T:Arabesque n1
C:Claude Debussy
L:1/8
Q:1/4=120
M:4/4
K:Emaj
V:1 treble nm="Piano" snm="Pno."
V:1
z2 (3cef (3gdB z2 | z2 (3Acd (3eBG z2 | z2 c2 f2 c2 | c2 c2 f2 a2- | 
 a2 a4- (3agf | z2 (3efc (3eBc (3GBF | (3GEG D4 C2 | B, z (3efc (3eBc (3GBF | (3GEG D4 C2 | 
 (3B,A,B, C2- CEDE | C2 G4 E2 | (3DCD E2- EGFG | E2 c4 (3^AcA | G2 e4 (3cec | g3 f g3 f | 
 g3 f g f2 g | =a4 g4 | f4 e4 | d4 e2 gb | d4- dceg | B4- BAce | G4 (3z Ac (3egf | d2 G2 z FAc | 
 E4 (3z FA (3ce=d | G2 F4 =D2 | C8- | C2 C2 E2 C2 | F8- | F2 F2 A2 F2 | 
 B2 G2 B2 G2 | c8- | c2 A2 B2 c2 | c8- | c2 A2 B2 c2 | d2 e2 f2 g2 | a2 b2 c'2 d'2 | f'4 e'4 | 
 e8 |[K:A] (3ede c2- cBBc | A2 F4 G2 | FE f4 e2 | FE g2- gbaf | (3ede c2- cBBc | A2 F2- FFFG | 
 (3FEB, C4 E2 | E6 z2 | (3D,F,A, (3CB,A, (3G,B,D (3FED | 
 (3CEG (3BAG (3FAc (3edc | (3Bdf a2- agfe | fedc dcBA | 
 (3D,F,A, (3CB,A, (3G,B,D (3FED | (3CEG (3BAG (3FAc (3edc | (3Bdf a2- agfg | 
 (3Bdf a2- agfg | (3ede c2- cBBc | A2 F4 G2 | FE f4 e2 | FE g2- gbaf | (3ede c2- cBBc | 
 A2 G2- GFFG | (3FEB, C4 E2 | E6 z2 | (3=G=FG E4 D2 | =C2 =G,4 C2 | D2 =F2 =G2 A=c | d4 =G4 | 
 (3=g=fg e4 d2 | e4 =f4 | (3=g=fg e4 g2 | (3^g^fg e4 g2 ||[K:E] a4 g4 | f4 e4 | z2 c2 f2 c2 | 
 c2 c2 f2 a2 | z2 a4- (3agf | z2 (3efc (3eBc (3GBF | (3GEG D4 C2 | B,2 (3efc (3eBc (3GBF | 
 (3GEG D4 C2 | (3B,A,B, C2- CEDE | C2 G4 E2 | (3DCD E2- EGFG | E2 c4 (3^AcA | G2 e4 (3cec | 
 g3 f g3 f | g3 f g f2 g | =a4 g4 | f4 e4 | a2 bc' agag- | g2 f2- f2 e2- | e=def dcdc- | 
 c2 B4 A2- | AGAG cA F2- ||[M:2/4] FEFE ||[M:4/4] A8 | A8 | G8 | F8 | 
 E2 (3e'f'c' (3e'bc' (3gbf | (3geg d4 c2 | B2 (3efc (3eBc (3GBF | (3GEG D4 C2 | 
 (3z B,E, (3z CG, (3z EB, (3z FC | (3z BE (3z cG (3z eB (3z fc | (3z be (3z c'g (3z e'b (3z f'c' | 
 e'2 e'4 e'2 | E2 z2 z4 |] 
